X:234
T:Mrs McCarty’s Reel TS.234
M:C
L:1/8
Q:1/2=90
S:Thomas Sands’ MS,1810,Lincolnshire
R:reel
O:England;Lincolnshire
Z:vmp.Ruairidh Greig, 2011
K:C
“qu. in ms”(G/F/)|EGGc AcGc|GcGE FD DF|EGGc AcGc|Bddf ec c:|
|:f|eg (3gfe faaf|egge fddf|eg (3gfe faaf|egdf ec”cr. in ms” c:|]

